svgs/arrows/arrow-block-up.svg

<svg width="24" height="24" viewBox="0 0 24 24" fill="none" xmlns="http://www.w3.org/2000/svg">
<path d="M9.8 21C9.51997 21 9.37996 21 9.273 20.9455C9.17892 20.8976 9.10243 20.8211 9.0545 20.727C9 20.62 9 20.48 9 20.2V10H5L12 3L19 10H15V20.2C15 20.48 15 20.62 14.9455 20.727C14.8976 20.8211 14.8211 20.8976 14.727 20.9455C14.62 21 14.48 21 14.2 21H9.8Z" stroke="#1C1D20" stroke-width="1.5" stroke-linecap="round" stroke-linejoin="round"/>
</svg>

<svg fill="none" xmlns="http://www.w3.org/2000/svg" viewBox="0 0 24 24"><path d="M9.8 21c-.28 0-.42 0-.527-.055a.5.5 0 0 1-.218-.218C9 20.62 9 20.48 9 20.2V10H5l7-7 7 7h-4v10.2c0 .28 0 .42-.055.527a.5.5 0 0 1-.218.218C14.62 21 14.48 21 14.2 21H9.8Z" stroke="#1C1D20" stroke-width="1.5" stroke-linecap="round" stroke-linejoin="round"/></svg>
